!!! OTL: Berkowitz603
!!! Chapter: 1
!!! Section: V
!!! Page: 153
!!! Mode: 
!!! Encoder: AR
**kern
*staff1
=1-
!!pagebreak:original
*clefG2
*k[]
*C:
*M3/4
4c/
4f#/
4g/
=2
[2.e-/
=3
4e-/]
4r
4a/
=4
4a#/
4cc#\
4b\
=5
2f/
4a-/
=6
4e/
4d/
4r
=7
4d/
4a-/
4g/
=8
4b\
4b\
4b\
=9
2.f/
=10
!!linebreak:original
4r
4e/
4c#/
=11
2d#/
4a/
=12
2.a/
=13
4r
4a/
4f#/
=14
2a#/
4a#/
=15
2.a#/
=16
2cc\
4g-/
=17
4f/
[2a/
=18
!!linebreak:original
4a/]
4e/
4d/
=19
2B/
4c#/
=20
2.g/
=21
4e/
4g#/
4g#/
=22
2.a#/
=23
2.an/
=24
4r
4a#/
4r
==
*-
